UI/POI/SVG/metro_solid_24px.svg

<svg width="24" height="24" viewBox="0 0 24 24" fill="none" xmlns="http://www.w3.org/2000/svg">
<path d="M16 22H8.00003V20H16V22ZM18 12V16C17.9826 16.5249 17.7662 17.0235 17.3949 17.3949C17.0235 17.7662 16.5249 17.9825 16 18H8.00003C7.4696 18 6.96089 17.7893 6.58581 17.4142C6.21074 17.0391 6.00003 16.5304 6.00003 16V12C6.00003 10.4087 6.63217 8.88258 7.75739 7.75736C8.88261 6.63214 10.4087 6 12 6C13.5913 6 15.1175 6.63214 16.2427 7.75736C17.3679 8.88258 18 10.4087 18 12ZM8.00003 12H16C16 10.9391 15.5786 9.92172 14.8285 9.17157C14.0783 8.42143 13.0609 8 12 8C10.9392 8 9.92175 8.42143 9.1716 9.17157C8.42146 9.92172 8.00003 10.9391 8.00003 12ZM10 14H8.00003V16H10V14ZM16 14H14V16H16V14ZM22 12C22.002 12.8161 21.9012 13.6291 21.7 14.42L19.76 13.94C19.9216 13.3061 20.0022 12.6542 20 12C20 9.87827 19.1572 7.84344 17.6569 6.34315C16.1566 4.84285 14.1218 4 12 4C9.8783 4 7.84347 4.84285 6.34317 6.34315C4.84288 7.84344 4.00003 9.87827 4.00003 12C3.99783 12.6542 4.07847 13.3061 4.24003 13.94L2.30003 14.42C2.09884 13.6291 1.99804 12.8161 2.00003 12C2.00003 9.34784 3.0536 6.8043 4.92896 4.92893C6.80433 3.05357 9.34786 2 12 2C14.6522 2 17.1957 3.05357 19.0711 4.92893C20.9465 6.8043 22 9.34784 22 12Z" fill="#0F1621"/>
</svg>

<svg xmlns="http://www.w3.org/2000/svg" width="24" height="24" viewBox="0 0 24 24"><rect width="24" height="24" style="fill:none"/><path d="M16,22H8V20h8Zm2-10v4a2.07,2.07,0,0,1-2,2H8a2,2,0,0,1-2-2V12a6,6,0,0,1,12,0ZM8,12h8a4,4,0,0,0-8,0Zm2,2H8v2h2Zm6,0H14v2h2Zm6-2a9.72,9.72,0,0,1-.3,2.42l-1.94-.48A7.75,7.75,0,0,0,20,12,8,8,0,0,0,4,12a7.75,7.75,0,0,0,.24,1.94l-1.94.48A9.72,9.72,0,0,1,2,12a10,10,0,0,1,20,0Z"/></svg>
